X:1
T:The Silver Spear
M:C
L:1/8
Q:80
C:Arr. by T. Tully
S:Reel
K:HP
[| {g}GA{g}A{d}A{g}BA{g}A{d}A | \
{g}df{g}ed{g}Bd{g}d{c}d | \
{g}GA{g}A{d}A{g}BA{g}A{d}A |
{g}df{g}ed{gBd}B2{G}A2{g}GA{g}A{d}A{g}BA{g}A{d}A | \
{g}df{g}ed{g}Bd{g}ef | \
{g}fg{f}ge{gefe}f2{g}fe |
{g}df{g}ed{gBd}B2{G}A2|] [ | \
{g}fa{g}a{g}afa{g}af | \
{a}gf{g}ed{g}Bd{g}d{c}d |
{g}fa{g}a{g}afa{g}af | \
{a}gf{g}ed{gBd}B2{G}A2{g}fa{g}a{g}afa{g}af | \
{a}gf{g}ed{g}Bd{g}ef |
{g}fg{f}ge{gefe}f2{g}fe | \
{g}df{g}ed{gBd}B2{G}A2|]
